X: 03064
T: NEW ENGLAND WINTER
C: Bob McQuillen 31 Dec 76
B: Bob's Note Book 03 #64
%R: waltz
%D:1976
Z: 2020 John Chambers <jc:trillian.mit.edu>
M: 3/4
L: 1/8
K: Em
G2 A2 \
| BA BA GA | BA BA GA | B2 E3  D | ED EF GA |\
| B2 E3  D | ED EF GA | B2 d3  e | de dB GA |
| BA BA GA | BA BA GA | B2 E3  D | ED EF GA |\
| Bd ed BA | BA GF GE | B,2 E3 D | E2 ||
|| B2 d2 \
| ed ed Bd | ed ed Bd | ed ed BA | GA GF EF |\
| GA GF EF | GA GF EF | GA BA GA | Bc Bd Bd |
| ed ed Bd | ed ed Bd | ed ed BA | GA GF EF |\
| GA Bd ed | BA BA GF | G2 E3 D | E2 |]
% (No comment on this one.)

%%sep 1 1 500

%%sep 1 1 500

